src/pos-icons/emoticon-cry-outline.svg

<svg height="24" viewBox="0 0 24 24" width="24" xmlns="http://www.w3.org/2000/svg"><path d="m7.57 20c-1.34 0-2.43-1.09-2.43-2.43 0-1.07 1.18-3.07 2.43-4.76 1.25 1.69 2.43 3.69 2.43 4.76a2.43 2.43 0 0 1 -2.43 2.43m4.43-18a10 10 0 0 0 -10 10c0 1.75.45 3.38 1.24 4.81.16-.81.57-1.74 1.07-2.64-.2-.67-.31-1.42-.31-2.17a8 8 0 0 1 8-8 8 8 0 0 1 8 8 8 8 0 0 1 -8 8c-.24 0-.47 0-.71-.04-.47.74-1.15 1.32-1.95 1.67.85.24 1.74.37 2.66.37a10 10 0 0 0 10-10 10 10 0 0 0 -10-10m0 12c-.41 0-.81.04-1.19.12.35.63.66 1.28.88 1.88h.31c1.25 0 2.32.5 2.77 1.23l1.42-1.42c-.9-1.09-2.44-1.81-4.19-1.81m3.5-6c-.8 0-1.5.7-1.5 1.5s.7 1.5 1.5 1.5 1.5-.7 1.5-1.5-.7-1.5-1.5-1.5m-5.5 1.5c0-.8-.7-1.5-1.5-1.5s-1.5.7-1.5 1.5.7 1.5 1.5 1.5 1.5-.7 1.5-1.5"/></svg>

<?xml version="1.0" encoding="UTF-8"?><!DOCTYPE svg PUBLIC "-//W3C//DTD SVG 1.1//EN" "http://www.w3.org/Graphics/SVG/1.1/DTD/svg11.dtd"><svg xmlns="http://www.w3.org/2000/svg" xmlns:xlink="http://www.w3.org/1999/xlink" version="1.1" id="mdi-emoticon-cry-outline" width="24" height="24" viewBox="0 0 24 24"><path d="M7.57,20C6.23,20 5.14,18.91 5.14,17.57C5.14,16.5 6.32,14.5 7.57,12.81C8.82,14.5 10,16.5 10,17.57A2.43,2.43 0 0,1 7.57,20M12,2A10,10 0 0,0 2,12C2,13.75 2.45,15.38 3.24,16.81C3.4,16 3.81,15.07 4.31,14.17C4.11,13.5 4,12.75 4,12A8,8 0 0,1 12,4A8,8 0 0,1 20,12A8,8 0 0,1 12,20C11.76,20 11.53,20 11.29,19.96C10.82,20.7 10.14,21.28 9.34,21.63C10.19,21.87 11.08,22 12,22A10,10 0 0,0 22,12A10,10 0 0,0 12,2M12,14C11.59,14 11.19,14.04 10.81,14.12C11.16,14.75 11.47,15.4 11.69,16C11.79,16 11.89,16 12,16C13.25,16 14.32,16.5 14.77,17.23L16.19,15.81C15.29,14.72 13.75,14 12,14M15.5,8C14.7,8 14,8.7 14,9.5C14,10.3 14.7,11 15.5,11C16.3,11 17,10.3 17,9.5C17,8.7 16.3,8 15.5,8M10,9.5C10,8.7 9.3,8 8.5,8C7.7,8 7,8.7 7,9.5C7,10.3 7.7,11 8.5,11C9.3,11 10,10.3 10,9.5" /></svg>
